X:1
T:WOAH! MAUD
T:WOAH! MAUD
T:A RAG TWO STEP
T:By WILL H. ETTER.
T:Copyright, 1905, by Thos. Goggan &amp; Bros.
T:Copyright, 1905, by Thos. Goggan &amp; Bros.
T:Copyright, 1905, by Thos. Goggan &amp; Bros.
C:By WILL H. ETTER.
Z:Copyright, 1905, by Thos. Goggan & Bros.
%%score { 1 | 2 }
L:1/8
Q:1/4=90
M:2/4
K:C
V:1 treble nm="Piano" snm="Pno."
V:2 bass 
V:1
"^Intro.\n\n Tempo di Marcia.\n" [Gg]/d/[Gg]- [Gg]/e/[Gg]/[Ee]/ | [_A_a]/_e[Aa]/ e<[Aa] | %2
 [Gg]/=e/[Gg]/[^Fe]/- [Fe]/c/[=Fe] | [EGc]G A^A |: %4
S"^Not too fast."!p! [FB]/[F_B]/[FA]/[FG]/- [FG]/[F^G]/[FA]/[F_B]/ | =B/[Ff]B/ [Fe][Fd] | %6
 [Ec]/[EB]/[EA]/[EG]/- [EG]/[E^G]/[EA]/[EB]/ | c/[Ee]B/ [Ed][Ec] | [FB]/^AB/ [=Af]2- | %9
 [Af][FB] [FA][FG] | [EA]/^GA/ [=Ge]2- | [Ge][Ec] [EB][_EA] | %12
 [FB]/[F_B]/[FA]/[FG]/- [FG]/[F^G]/[FA]/[F_B]/ | =B/[Ff]B/ [Fe][Fd] | %14
 [Ec]/[EB]/[EA]/[EG]/- [EG]/[E^G]/[EA]/[EB]/ | c/[Ee]B/ [Ed][Ec] | [FG][F^G] [FA][F^A] | %17
 B/[Af][Ge]/ ^F<[=Fd] | [Ec]4- |1 [Ec] GA^A :|2 [Ec] z [cec'] z!dacoda! |]: %21
[K:F]!f! z/ E/B/[Ee]/- [Ee]/B/[Ed] | [Ee]/G/B/[Ee]/- [Ee]/B/[Ed]- | [Ed]/F/A/[Ff]/- [Ff]/A/[Fd] | %24
 A/[Ff]=B/ d/c/F/G/ | E/[Be]E/ [Bd]2- | [Bd]E/!^![Be]/- [Be]/E/!^![Bd] | F/[Ad]F/ [Ac]2- | %28
 [Ac]F/!^![Ad]/- [Ad]/F/!^![Ac]- | [Ac]/E/B/[Ee]/- [Ee]/B/[Ed] | C/!<(!^C/D/^D/ E/F/G/^G/!<)! | %31
 A/[Fd]A/ [Fc]2 | A/[Fd]A/ [Fc]2 | z/ D/^F/A/ d/A[Fc]/ | [Dc]/B/G/D/- D/F/G/^G/ | %35
 A/!^!CA/ !^!=B,/G!^!_B,/ | [A,F]"^D.S. ad lib." !^![Cc]!^![Cc]!^![Cc]!D.S.! :: %37
[K:Bb]O [Ff]d/[Ff]/- [Ff]/F/B/d/ | [Ff]d/[Ff]/- [Ff]/d/[^F^f] | [Gg][Gg]/[GB]/- [GB]/[Gc]/[G^c] | %40
 [Fd]^c/[Fd]/- [Fd]/F/B/d/ | [Ff]d/[Ff]/- [Ff]/d/c/B/ | [Ff]d/[Ff]/- [Ff]/d/c/B/ | %43
 [=Ed]/c/B/[Ed]/- [Ed]/c/B/G/ | d/c/A/G/- G/F/B/d/ | [Ff]d/[Ff]/- [Ff]/F/B/d/ | %46
 [Ff]d/[Ff]/- [Ff]/d/[^F^f] | [Gg]/[Gg][GB]/ [Gc]<[G^c] | [^FAd]3 z |"_cresc." [GB][Gc] [GB]<[Gc] | %50
 [FB]/c/[Fd]/B/ [Fc]<[Fd] | [=EB]/c/[Ed]/B/ c/[_Ec][Ff]/ |1 [DFB] [Ff][Ff][Ff] :|2 %53
 [DFB] [Bb][Bb][Bb] |: [Bb][eg] [Bb][eg] | [Bb]/[eg]/[Bb]/[cc']/- [cc']/[Bb]/[Gg] | %56
 [Ff][Bd] [Ff][Bd] | [Ff]/[Bd]/[Ff]/[Gg]/- [Gg]/[Ff]/d/B/ | [=Ed]c/G/- G/A/B | d/cA/ d/c/A/F/ | %60
 c/BA/ c/B/G/^F/ | =F/D/E/=E/ F/^F/G/A/ | [Bb][eg] [Bb][eg] | %63
 [Bb]/[eg]/[Bb]/[cc']/- [cc']/[Bb]/[Gg] | [Ff][Bd] [Ff][Bd] | %65
 [Ff]/[Bd]/[Ff]/[Gg]/- [Gg]/[Ff]/d/B/ | [EG][EA] [EB][Ec] | [Fd]/^c/[Fd]/f/- f/F/G/A/ | %68
 [=EB][EG] B<[_Ec] | [DB]/df/ [Bdb] z |] %70
V:2
 [C,,C,][G,CE] [G,,,G,,][G,CE] | [_A,,_A,][_G,A,C_E] [G,A,CE][A,,A,] | %2
 [G,,G,][G,C=E] [A,,A,][G,,G,] | [C,G,C][G,,G,] [E,,E,][^C,,^C,] |: %4
 [D,,D,][F,G,B,] [F,G,B,][G,,,G,,] | [D,,D,][F,G,B,] [F,G,B,][G,,,G,,] | %6
 [C,,C,][E,G,C] [E,G,C][G,,,G,,] | [C,,C,][E,G,C] [E,G,C][G,,,G,,] | %8
 [D,,D,][F,G,B,] [F,G,B,][G,,,G,,] | [D,,D,][F,G,B,] [F,G,B,][G,,,G,,] | %10
 [C,,C,][E,G,C] [E,G,C][G,,,G,,] | [C,,C,][E,G,C] [E,,E,][^F,,^F,] | %12
 [D,,D,][F,G,B,] [F,G,B,][G,,,G,,] | [D,,D,][F,G,B,] [F,G,B,][G,,,G,,] | %14
 [C,,C,][E,G,C] [E,G,C][G,,,G,,] | [C,,C,][E,G,C] [E,G,C][G,,,G,,] | %16
 [B,,B,][_B,,_B,] [A,,A,][_A,,_A,] | [G,,G,][^G,,^G,] [A,,A,][B,,B,] | %18
 [C,C][A,,A,] [G,,G,][E,,E,] |1 [C,,C,] [G,,G,][E,,E,][^C,,^C,] :|2 [C,,C,] z [G,CE] z |]: %21
[K:F] [G,,G,][B,,B,] [G,,G,][E,,E,] | [C,,C,][^C,,^C,] [D,,D,][E,,E,] | %23
 [F,,F,][F,A,C] [C,,C,][F,A,C] | [F,,F,][F,A,C] [A,,A,][_A,,_A,] | [G,,G,][G,B,C] [C,,C,][G,B,C] | %26
 [G,,G,][G,B,C] [C,,C,][G,B,C] | [F,,F,][F,A,C] [C,,C,][F,A,C] | [F,,F,][F,A,C] [C,,C,][F,A,C] | %29
 [G,,G,][B,,B,] [G,,G,][E,,E,] | !^![C,,C,]2 !^![E,,E,]2 | [F,,F,][F,A,C] [C,,C,][F,A,C] | %32
 [F,,F,][F,A,C]- [F,A,C]/[F,,F,]/[E,,E,]/[_E,,_E,]/ | [D,,D,][^F,,^F,]/[A,,A,]/ [D,D][C,C] | %34
 [B,,B,][G,,G,] [D,,D,][_D,,_D,] | !^![C,,C,]!^![^C,,^C,] !^![D,,D,]!^![E,,E,] | [F,,F,] z z2 :: %37
[K:Bb] [B,,,B,,][F,B,D] F,,[F,B,D] | [B,,,B,,][F,B,D] [D,,D,][^F,B,D] | %39
 [E,,E,][G,B,E] [E,,E,][G,B,^C] | [B,,,B,,][F,B,D] F,,[F,B,D] | B,,[F,B,D] F,,[F,B,D] | %42
 B,,[F,B,D] B,,[F,B,D] | C,[G,B,C] [C,,C,][G,B,C] | !^![F,,F,]!^![G,,G,] !^![A,,A,] z | %45
 [B,,,B,,][F,B,D] F,,[F,B,D] | [B,,,B,,][F,B,D] [D,,D,][^F,B,D] | %47
 [E,,E,][G,B,E] [=E,,=E,][G,B,^C] | %48
 [D,D]/[C,C]/[B,,B,]/[A,,A,]/ [G,,G,]/[^F,,^F,]/[_E,,_E,]/[D,,D,]/ | %49
 [E,,E,][E,,E,] [=E,,=E,][E,,E,] | [F,,F,][F,,F,] [F,,F,][F,,F,] | [G,,G,][G,,G,] [A,,A,][A,,A,] |1 %52
 [B,,B,] z z2 :|2 [B,,B,] z z2 |:"^marcato." [E,,E,][G,B,E] [G,B,E][B,,,B,,] | %55
 [E,,E,][G,B,E] [E,,E,][=E,,=E,] | [F,,F,][F,B,D] [F,B,D][B,,,B,,] | %57
 [F,,F,][F,B,D] [F,B,D][B,,,B,,] | [=E,,=E,][G,B,C=E] [C,,C,][G,B,CE] | [F,,F,][A,CE] C,[A,CE] | %60
 [B,,,B,,][F,B,D] [D,,D,][G,B,^C] | [F,B,D] z z2 | [E,,E,][G,B,E] [G,B,E][B,,,B,,] | %63
 [E,,E,][G,B,E] [E,,E,][=E,,=E,] | [F,,F,][F,B,D] [F,B,D][B,,,B,,] | %65
 [F,,F,][F,B,D] [F,B,D][B,,,B,,] | [E,,E,][G,B,] [G,,G,][_G,,_G,] | %67
 [F,,F,][F,B,D] [D,,D,][_D,,_D,] | [C,,C,][=E,,=E,] [F,,F,][A,,A,] | [B,,B,][F,,F,] [B,,,B,,] z |] %70

